X: 30847
T: Out Of His Wits
R: reel
M: 4/4
K: Cdorian
|:G2 DG (3=Bcd GE|F3=E DEFD|G2 DG (3=Bcd gd|=BGAF DG G2|
g2 dc (3=Bcd AF|G3 F D3 (3D=EF|G=BdB GFD=E|FDCF DG G2:|
(3=Bcd ga =b2 a=e|f3 g ad d2|dAfA gAfA|gf (3=efg fdcA|
(3=Bcd ga _b2 a=e|f3 g fd (3ABc|df=ed dcAG|(3 =EFG cE FG G2:|
(3=Bcd cA G2 =EG|F2 CF A,=B,CD|=BdcA GABd|gbaf dg g2|
bg (3fga gfd=e|fgag fdcA|(3Bcd cA G2 DG|FDCF DG G2:|

